outputs/icons/file/doc_attach_sharp.svg

<svg xmlns="http://www.w3.org/2000/svg" width="1200" height="1200" fill="none"><path fill="#000" fill-rule="evenodd" d="M50 1150h1100V348.99L850.99 50H50zm750-750h250v650H150V150h650zm67 200.045c-16.91 1.82-31.94 8.265-48 20.59-29.245 22.445-46.69 56.565-54.3 106.22-3.895 25.41-2.67 85.95 2.245 110.875 11.62 58.965 41.945 97.875 86.46 110.94 13.855 4.07 58.005 6.185 75.335 3.605 35.355-5.255 66.455-32.085 83.505-72.045 6.315-14.795 7.05-20.665 3.01-24.015-4.045-3.36-55.17-14.67-60.39-13.36-3.06.77-6.36 5.085-10.42 13.635-7.67 16.16-16.93 28.63-23.905 32.205-3.045 1.56-10.585 3.96-16.755 5.325-9.615 2.135-12.625 2.025-21.065-.78-19.71-6.55-30.305-19.76-36.045-44.95-4.095-17.98-6.095-113.18-2.82-134.29 3.815-24.625 14.61-43.9 28.7-51.26 6.735-3.515 28.34-5.77 37.98-3.96 10.74 2.015 23.48 14.665 33.485 33.26 4.86 9.025 9.95 16.84 11.31 17.365 3.275 1.255 43.3-8.735 54.43-13.59 8.445-3.685 8.72-4.08 7.605-10.96-.64-3.93-4.565-14.055-8.725-22.5-10.495-21.3-32.05-43.015-52.795-53.19-13.88-6.81-17.245-7.585-40-9.24-27.655-2.005-29.06-2.005-48.845.12m-314.265 3.635c-23.555 8.14-50.675 30.24-62.523 50.95-7.93 13.86-17.141 41.91-21.465 65.37-4.835 26.23-4.874 83.765-.074 109.92 11.502 62.69 37.577 99.695 82.877 117.62 12.67 5.015 15.42 5.325 47.45 5.39 28.09.06 35.91-.58 45-3.67 30.005-10.205 54.225-31.905 68.96-61.78 31.69-64.24 30.08-173.36-3.395-230.48-10.38-17.705-33.36-40.65-47.79-47.71-14.95-7.315-29.17-9.275-66.775-9.215-25.345.045-34.135.795-42.265 3.605M192 950l45.5-.05c68.173-.08 102.937-2.645 119.284-8.795 58.706-22.1 88.083-83.32 84.526-176.155-3.118-81.4-22.561-120.78-73.853-149.57l-16.83-9.445-51.813-1.955c-28.498-1.075-64.189-1.97-79.314-1.99L192 602zm432.06-287.5c9.965 5.035 15.89 12.79 21.765 28.495 6.86 18.325 8.66 41.445 7.7 98.675-.8 47.62-1.36 54.74-5.19 66.5-8.205 25.175-20.295 35.745-42.825 37.445-14.135 1.065-28.44-2.34-36.89-8.775-9.645-7.345-17.95-26.585-20.66-47.84-2.895-22.715-2.945-103.125-.075-123 5.835-40.45 20.21-55.865 52.19-55.955 11.725-.035 17.06.955 23.985 4.455m-306.247 1.855c11.156 1.885 13.954 3.305 21.659 11.01 10.011 10.01 17.545 24.91 20.513 40.555 2.601 13.715 2.544 98.87-.079 117.02-3.519 24.35-14.842 42.355-32.212 51.215-8.538 4.355-28.896 7.745-46.871 7.805l-12.177.04-1.323-63.325C266.595 793.845 266 741.52 266 712.4v-52.95l19.5 1.37c10.725.75 25.265 2.34 32.313 3.535"/></svg>

<svg width="1200" height="1200" viewBox="0 0 1200 1200" fill="none" xmlns="http://www.w3.org/2000/svg"><path fill-rule="evenodd" d="M50 1150H1150V348.99L850.99 50H50V1150ZM800 400H1050V1050H150V150H800V400ZM867 600.045C850.09 601.865 835.06 608.31 819 620.635C789.755 643.08 772.31 677.2 764.7 726.855C760.805 752.265 762.03 812.805 766.945 837.73C778.565 896.695 808.89 935.605 853.405 948.67C867.26 952.74 911.41 954.855 928.74 952.275C964.095 947.02 995.195 920.19 1012.245 880.23C1018.56 865.435 1019.295 859.565 1015.255 856.215C1011.21 852.855 960.085 841.545 954.865 842.855C951.805 843.625 948.505 847.94 944.445 856.49C936.775 872.65 927.515 885.12 920.54 888.695C917.495 890.255 909.955 892.655 903.785 894.02C894.17 896.155 891.16 896.045 882.72 893.24C863.01 886.69 852.415 873.48 846.675 848.29C842.58 830.31 840.58 735.11 843.855 714C847.67 689.375 858.465 670.1 872.555 662.74C879.29 659.225 900.895 656.97 910.535 658.78C921.275 660.795 934.015 673.445 944.02 692.04C948.88 701.065 953.97 708.88 955.33 709.405C958.605 710.66 998.63 700.67 1009.76 695.815C1018.205 692.13 1018.48 691.735 1017.365 684.855C1016.725 680.925 1012.8 670.8 1008.64 662.355C998.145 641.055 976.59 619.34 955.845 609.165C941.965 602.355 938.6 601.58 915.845 599.925C888.19 597.92 886.785 597.92 867 600.045ZM552.735 603.68C529.18 611.82 502.06 633.92 490.212 654.63C482.282 668.49 473.071 696.54 468.747 720C463.912 746.23 463.873 803.765 468.673 829.92C480.175 892.61 506.25 929.615 551.55 947.54C564.22 952.555 566.97 952.865 599 952.93C627.09 952.99 634.91 952.35 644 949.26C674.005 939.055 698.225 917.355 712.96 887.48C744.65 823.24 743.04 714.12 709.565 657C699.185 639.295 676.205 616.35 661.775 609.29C646.825 601.975 632.605 600.015 595 600.075C569.655 600.12 560.865 600.87 552.735 603.68ZM192 950L237.5 949.95C305.673 949.87 340.437 947.305 356.784 941.155C415.49 919.055 444.867 857.835 441.31 765C438.192 683.6 418.749 644.22 367.457 615.43L350.627 605.985L298.814 604.03C270.316 602.955 234.625 602.06 219.5 602.04L192 602V950ZM624.06 662.5C634.025 667.535 639.95 675.29 645.825 690.995C652.685 709.32 654.485 732.44 653.525 789.67C652.725 837.29 652.165 844.41 648.335 856.17C640.13 881.345 628.04 891.915 605.51 893.615C591.375 894.68 577.07 891.275 568.62 884.84C558.975 877.495 550.67 858.255 547.96 837C545.065 814.285 545.015 733.875 547.885 714C553.72 673.55 568.095 658.135 600.075 658.045C611.8 658.01 617.135 659 624.06 662.5ZM317.813 664.355C328.969 666.24 331.767 667.66 339.472 675.365C349.483 685.375 357.017 700.275 359.985 715.92C362.586 729.635 362.529 814.79 359.906 832.94C356.387 857.29 345.064 875.295 327.694 884.155C319.156 888.51 298.798 891.9 280.823 891.96L268.646 892L267.323 828.675C266.595 793.845 266 741.52 266 712.4V659.45L285.5 660.82C296.225 661.57 310.765 663.16 317.813 664.355Z" fill="black"/></svg>
